assets/symbols/mulberry/flag_chile.svg

<svg height="850.394" viewBox="0 0 850.394 850.394" width="850.394" xmlns="http://www.w3.org/2000/svg"><path d="m748.18 330v190.17h-579.62l-1.75-190.17h579.19z" fill="#ed1e29"/><path d="m748.18 140.34v189.66h-426.18v-189.66z" fill="#fff"/><path d="m322 140.34v189.66h-155.19l-1.74-189.66zm-55.1 106.98 19.76-23.02-27.3-4.74-12.21-29.56-12.21 29.56-27.29 4.74 19.75 23.02-4.67 32.49 24.42-15.34 24.42 15.34z" fill="#0071bc"/><path d="m286.66 224.3-19.76 23.02 4.67 32.49-24.42-15.34-24.42 15.34 4.67-32.49-19.75-23.02 27.29-4.74 12.21-29.56 12.21 29.56z" fill="#fff"/><path d="m122 114.77c-10.99-4.89-18.33-13.72-18.33-23.8 0-15.4 17.13-27.88 38.25-27.88 21.13 0 38.26 12.48 38.26 27.88 0 9.84-7 18.49-17.57 23.45-5.96 2.8-13.07 4.43-20.69 4.43-7.3 0-14.12-1.49-19.92-4.08z" fill="#c8c8c8"/><path d="m162.61 330v455.38h-39.49l-1.12-670.61c5.8 2.59 12.62 4.08 19.92 4.08 7.62 0 14.73-1.63 20.69-4.43z" fill="#c8c8c8"/><g fill="none"><g stroke="#231f20"><path d="m165.07 140.34h583.11v379.83h-579.62m-46.56-405.4c-10.99-4.89-18.33-13.72-18.33-23.8 0-15.4 17.13-27.88 38.25-27.88 21.13 0 38.26 12.48 38.26 27.88 0 9.84-7 18.49-17.57 23.45-5.96 2.8-13.07 4.43-20.69 4.43-7.3 0-14.12-1.49-19.92-4.08z" stroke-width="21"/><path d="m122 114v.77l1.12 670.61m39.49-672.78v672.78" stroke-width="21"/><path d="m162 330h584m-424-192v192" stroke-width="14"/><path d="m247.15 264.47 24.42 15.34-4.67-32.49 19.76-23.02-27.3-4.74-12.21-29.56-12.21 29.56-27.29 4.74 19.75 23.02-4.67 32.49z" stroke-width="7"/></g><path d="m0 0h850.394v850.394h-850.394z"/></g></svg>

<svg xmlns="http://www.w3.org/2000/svg" width="850.394" height="850.394" viewBox="0 0 850.394 850.394" overflow="visible"><path fill="#ed1e29" d="M748.18 330v190.17H168.56L166.81 330H746z"/><path fill="#fff" d="M748.18 140.34V330H322V140.34z"/><path d="M322 140.34V330H166.81l-1.74-189.66H322zm-55.1 106.98l19.76-23.02-27.3-4.74L247.15 190l-12.21 29.56-27.29 4.74 19.75 23.02-4.67 32.49 24.42-15.34 24.42 15.34-4.67-32.49z" fill="#0071bc"/><path fill="#fff" d="M286.66 224.3l-19.76 23.02 4.67 32.49-24.42-15.34-24.42 15.34 4.67-32.49-19.75-23.02 27.29-4.74L247.15 190l12.21 29.56z"/><path d="M122 114.77c-10.99-4.89-18.33-13.72-18.33-23.8 0-15.4 17.13-27.88 38.25-27.88 21.13 0 38.26 12.48 38.26 27.88 0 9.84-7 18.49-17.57 23.45-5.96 2.8-13.07 4.43-20.69 4.43-7.3 0-14.12-1.49-19.92-4.08z" fill="#c8c8c8"/><path d="M162.61 330v455.38h-39.49L122 114.77c5.8 2.59 12.62 4.08 19.92 4.08 7.62 0 14.73-1.63 20.69-4.43V330z" fill="#c8c8c8"/><g fill="none" stroke="#231f20"><path stroke-width="21" d="M165.07 140.34h583.11v379.83H168.56M122 114.77c-10.99-4.89-18.33-13.72-18.33-23.8 0-15.4 17.13-27.88 38.25-27.88 21.13 0 38.26 12.48 38.26 27.88 0 9.84-7 18.49-17.57 23.45-5.96 2.8-13.07 4.43-20.69 4.43-7.3 0-14.12-1.49-19.92-4.08z"/><path stroke-width="21" d="M122 114v.77l1.12 670.61M162.61 112.6v672.78"/><path stroke-width="14" d="M162 330h584M322 138v192"/><path stroke-width="7" d="M247.15 264.47l24.42 15.34-4.67-32.49 19.76-23.02-27.3-4.74L247.15 190l-12.21 29.56-27.29 4.74 19.75 23.02-4.67 32.49z"/></g><path fill="none" d="M0 0h850.394v850.394H0z"/></svg>
